icons/midnadark/actions/24/tab-new.svg

<?xml version="1.0" encoding="UTF-8" standalone="no"?>
<!-- Created with Inkscape (http://www.inkscape.org/) -->

<svg
   xmlns:dc="http://purl.org/dc/elements/1.1/"
   xmlns:cc="http://creativecommons.org/ns#"
   xmlns:rdf="http://www.w3.org/1999/02/22-rdf-syntax-ns#"
   xmlns:svg="http://www.w3.org/2000/svg"
   xmlns="http://www.w3.org/2000/svg"
   xmlns:sodipodi="http://sodipodi.sourceforge.net/DTD/sodipodi-0.dtd"
   xmlns:inkscape="http://www.inkscape.org/namespaces/inkscape"
   width="22"
   height="22"
   id="svg3869"
   version="1.1"
   inkscape:version="0.91 r13725"
   sodipodi:docname="tab-new.svg">
  <defs
     id="defs3871" />
  <sodipodi:namedview
     id="base"
     pagecolor="#ffffff"
     bordercolor="#666666"
     borderopacity="1.0"
     inkscape:pageopacity="0.0"
     inkscape:pageshadow="2"
     inkscape:zoom="11.313708"
     inkscape:cx="-20.87705"
     inkscape:cy="8.787005"
     inkscape:document-units="px"
     inkscape:current-layer="layer1"
     showgrid="true"
     fit-margin-top="0"
     fit-margin-left="0"
     fit-margin-right="0"
     fit-margin-bottom="0"
     inkscape:window-width="1366"
     inkscape:window-height="633"
     inkscape:window-x="0"
     inkscape:window-y="33"
     inkscape:window-maximized="1"
     inkscape:showpageshadow="false"
     inkscape:snap-bbox="true"
     inkscape:object-nodes="true">
    <inkscape:grid
       type="xygrid"
       id="grid4132" />
    <sodipodi:guide
       position="4,18"
       orientation="18,0"
       id="guide4138" />
    <sodipodi:guide
       position="5,3"
       orientation="0,18"
       id="guide4140" />
    <sodipodi:guide
       position="20,2.0000174"
       orientation="-18,0"
       id="guide4142" />
    <sodipodi:guide
       position="2,21"
       orientation="0,-18"
       id="guide4144" />
    <sodipodi:guide
       position="3,19.000017"
       orientation="16,0"
       id="guide4146" />
    <sodipodi:guide
       position="2,4"
       orientation="0,16"
       id="guide4148" />
    <sodipodi:guide
       position="21,20"
       orientation="-16,0"
       id="guide4150" />
    <sodipodi:guide
       position="2,20"
       orientation="0,-16"
       id="guide4152" />
  </sodipodi:namedview>
  <metadata
     id="metadata3874">
    <rdf:RDF>
      <cc:Work
         rdf:about="">
        <dc:format>image/svg+xml</dc:format>
        <dc:type
           rdf:resource="http://purl.org/dc/dcmitype/StillImage" />
        <dc:title />
      </cc:Work>
    </rdf:RDF>
  </metadata>
  <g
     inkscape:label="Capa 1"
     inkscape:groupmode="layer"
     id="layer1"
     transform="translate(-326,-534.3622)">
    <g
       id="layer1-89"
       inkscape:label="Capa 1"
       style="fill:#ffffff;fill-opacity:1">
      <g
         inkscape:label="Capa 1"
         id="layer1-1"
         style="fill:#ffffff;fill-opacity:1">
        <g
           id="layer1-5"
           inkscape:label="Capa 1"
           style="fill:#ffffff;fill-opacity:1">
          <g
             transform="matrix(0.90909089,0,0,0.90909089,29.727279,50.487483)"
             id="g4157-0"
             style="fill:#ffffff;fill-opacity:1">
            <g
               id="g4156"
               transform="matrix(1.0072497,0,0,1.0072497,-2.7063986,-3.7952074)"
               style="fill:#ffffff;fill-opacity:1">
              <g
                 style="fill:#ffffff;fill-opacity:1"
                 id="g3-4"
                 transform="matrix(0.66666667,0,0,0.66666667,327.33333,533.69553)">
                <path
                   style="fill:#ffffff;fill-opacity:1"
                   d="M 3.7265625 3.8125 L 1 7.9003906 L 1 18.462891 L 20.535156 18.462891 L 20.535156 7.4746094 L 17.808594 3.8125 L 12.292969 3.8125 L 10.689453 5.9511719 L 9.2617188 3.8125 L 3.7265625 3.8125 z M 16.300781 12.205078 L 17.332031 12.205078 L 17.332031 14.267578 L 19.394531 14.267578 L 19.394531 15.298828 L 17.332031 15.298828 L 17.332031 17.361328 L 16.300781 17.361328 L 16.300781 15.298828 L 14.238281 15.298828 L 14.238281 14.267578 L 16.300781 14.267578 L 16.300781 12.205078 z "
                   transform="matrix(1.6381241,0,0,1.6381241,-1.6381239,-2.24461)"
                   id="path5-23" />
              </g>
            </g>
          </g>
        </g>
      </g>
    </g>
    <g
       id="g4166"
       transform="matrix(1.03125,0,0,1.03125,-11.41825,-15.836819)"
       style="fill:#ffffff;fill-opacity:1">
      <g
         transform="translate(0,-2)"
         inkscape:label="Capa 1"
         id="layer1-8"
         style="fill:#ffffff;fill-opacity:1">
        <g
           transform="translate(-226.72253,-49.75706)"
           id="layer1-9"
           inkscape:label="Capa 1"
           style="fill:#ffffff;fill-opacity:1" />
      </g>
    </g>
  </g>
</svg>

<svg xmlns="http://www.w3.org/2000/svg" viewBox="0 0 22 22"><path d="m3.727 3.813l-2.727 4.088v10.563h19.535v-10.988l-2.727-3.662h-5.516l-1.604 2.139-1.428-2.139h-5.535m12.574 8.393h1.031v2.063h2.063v1.031h-2.063v2.063h-1.031v-2.063h-2.063v-1.031h2.063v-2.063" transform="translate(0-.002)" fill="#fff"/></svg>
